X: 203
T: A Glass Of Poitín
R: jig
M: 6/8
K: Dmixolydian
|:e|dBB AGA|GAG GAB|dBB BAB|Bee efg|
dBB AGA|GAG GAB|dBB BAB|Bee e2:|
|:f|g2 g faf|ded def|g2 g faf|efe e2 f|
g2 g faf|ded def|gfe dBA|Bee e2:|

